svgs/thin/wave-square.svg

<svg xmlns="http://www.w3.org/2000/svg" viewBox="0 0 640 512"><!-- Font Awesome Pro 6.0.0-alpha2 by @fontawesome - https://fontawesome.com License - https://fontawesome.com/license (Commercial License) --><path d="M640 256C640 260.406 636.406 264 632 264H512C498.781 264 488 274.781 488 288V416C488 438.062 470.062 456 448 456H352C329.938 456 312 438.062 312 416V96C312 82.781 301.219 72 288 72H192C178.781 72 168 82.781 168 96V224C168 246.062 150.062 264 128 264H8C3.594 264 0 260.406 0 256S3.594 248 8 248H128C141.219 248 152 237.219 152 224V96C152 73.938 169.938 56 192 56H288C310.062 56 328 73.938 328 96V416C328 429.219 338.781 440 352 440H448C461.219 440 472 429.219 472 416V288C472 265.938 489.938 248 512 248H632C636.406 248 640 251.594 640 256Z"/></svg>

<svg xmlns="http://www.w3.org/2000/svg" viewBox="0 0 640 512"><!--! Font Awesome Pro 6.3.0 by @fontawesome - https://fontawesome.com License - https://fontawesome.com/license (Commercial License) Copyright 2023 Fonticons, Inc. --><path d="M640 256C640 260.4 636.4 264 632 264H512c-13.22 0-24 10.78-24 24v128c0 22.06-17.94 40-40 40h-96c-22.06 0-40-17.94-40-40V96c0-13.22-10.78-24-24-24H192C178.8 72 168 82.78 168 96v128c0 22.06-17.94 40-40 40H8C3.594 264 0 260.4 0 256C0 251.6 3.594 248 8 248H128c13.22 0 24-10.78 24-24V96c0-22.06 17.94-40 40-40h96c22.06 0 40 17.94 40 40v320c0 13.22 10.78 24 24 24h96c13.22 0 24-10.78 24-24V288c0-22.06 17.94-40 40-40h120C636.4 248 640 251.6 640 256z"/></svg>
